svg/fluentui-system-icons/ic_fluent_video_clip_off_16_filled.svg

<svg width="16" height="16" viewBox="0 0 16 16" fill="none" xmlns="http://www.w3.org/2000/svg">
<path d="M12.195 12.9021L14.1464 14.8536C14.3417 15.0488 14.6583 15.0488 14.8536 14.8536C15.0488 14.6583 15.0488 14.3417 14.8536 14.1464L1.85355 1.14645C1.65829 0.951184 1.34171 0.951184 1.14645 1.14645C0.951184 1.34171 0.951184 1.65829 1.14645 1.85355L2.88472 3.59183C2.34353 4.05041 2 4.73509 2 5.5V10.5C2 11.8807 3.11929 13 4.5 13H11.5C11.7412 13 11.9744 12.9659 12.195 12.9021ZM8.69903 9.40613L6.98686 10.4525C6.77363 10.5828 6.5 10.4293 6.5 10.1794V7.20711L8.69903 9.40613ZM10.246 7.53921C10.5185 7.70573 10.5755 8.05354 10.417 8.2959L13.7375 11.6164C13.9055 11.2804 14 10.9012 14 10.5V5.5C14 4.11929 12.8807 3 11.5 3H5.12109L8.73992 6.61882L10.246 7.53921Z" fill="#212121"/>
</svg>

<svg xmlns="http://www.w3.org/2000/svg" width="16" height="16"><path d="m12.195 12.902 1.951 1.952a.5.5 0 0 0 .708-.708l-13-13a.5.5 0 1 0-.708.708l1.739 1.738A2.495 2.495 0 0 0 2 5.5v5A2.5 2.5 0 0 0 4.5 13h7c.241 0 .474-.034.695-.098ZM8.699 9.406l-1.712 1.046a.32.32 0 0 1-.487-.273V7.207l2.199 2.2Zm1.547-1.867a.54.54 0 0 1 .171.757l3.32 3.32A2.49 2.49 0 0 0 14 10.5v-5A2.5 2.5 0 0 0 11.5 3H5.121L8.74 6.619l1.506.92Z"/></svg>
